!!!OTL: Die Geburt im Walde.
!!!OTL-incipit: Es gingen zwei Verliebte durch einen gruenen Wald;
!!!ODT: 2. Häöfte 19. Jhrh
!!!ARE: Europa, Mitteleuropa, Deutschland (BRD), Hessen
!!!YOR: 1, S. 72
!!    18?? aufgezeichnet (zweite Haelfte d. Jh.)
!!!SCT: Q0007F
!!!YEM: Copyright 1995, estate of Helmut Schaffrath.
**kern	**text
*ICvox	*
*M3/4	*
*k[f#]	*
*G:	*
!LO:TX:a:t=Neuere Melodiegruppe.	!
{4d	Es
=1	=1
4.g	gin-
8a	-gen
8b	ʒwei
8cc	Ver-
=2	=2
4a	-lieb-
4g	-te
4a	durch
=3	=3
4.b	ei-
8cc	-nen
8dd	grü-
8b	-nen
=4	=4
4a	Wald;
4r}	.
{8gL	ſie
8bJ	.
=5	=5
4dd	fan-
4dd	-den
8eeL	ein
8ddJ	.
=6	=6
8ddL	Brünnlein,
8ccJ	.
4cc	.
8aL	ſie
8bJ	.
=7	=7
4cc	fan-
4ee	-den
8ddL	ein
8ccJ	.
=8	=8
8ccL	Brünn-
8bJ	.
4b}	-lein,
{8gL	ſie
8aJ	.
=9	=9
4.b	fan-
8a	-den
8bL	ein
8ccJ	.
=10	=10
4.dd	Brünnlein,
8cc	.
4b	war
=11	=11
4cc	kühl
4b	und
4a	war
=12	=12
4g	kalt.
4r}	.
==	==
!!!AGN: Ballade, Geburt, Tod, Moral
!! Melodievergleich zu Q0007E.
!!!ONB: ESAC (Essen Associative Code) Database: BALLADE
!!!AMT: simple triple
!!!AIN: vox
!!!EED: Helmut Schaffrath
!!!EEV: 1.0
!!!source: Deutsche Volkslieder mit ihren Melodien. Balladen. Herausgegeben vom Deutschen Volksliedarchiv. Erster Band Balladen. Berlin und Leipzig 1935.
!!!page: 72
!!!ENC: Anna Maria Matuszewska
!!!EEV: 2025/02/13
*-	*-
